src/assets/icon-32-more.svg

<?xml version="1.0" encoding="UTF-8"?>
<svg width="32px" height="32px" viewBox="0 0 32 32" version="1.1" xmlns="http://www.w3.org/2000/svg" xmlns:xlink="http://www.w3.org/1999/xlink">
    <g id="Page-1" stroke="none" stroke-width="1" fill="none" fill-rule="evenodd">
        <g id="icon-32-more" fill="#27322F">
            <path d="M16,20.848 C16.6346698,20.848 17.185331,21.081331 17.652,21.548 C18.118669,22.014669 18.352,22.5653302 18.352,23.2 C18.352,23.8346698 18.118669,24.385331 17.652,24.852 C17.185331,25.318669 16.6346698,25.552 16,25.552 C15.3653302,25.552 14.814669,25.318669 14.348,24.852 C13.881331,24.385331 13.648,23.8346698 13.648,23.2 C13.648,22.5653302 13.881331,22.014669 14.348,21.548 C14.814669,21.081331 15.3653302,20.848 16,20.848 Z M16,13.848 C16.6346698,13.848 17.185331,14.081331 17.652,14.548 C18.118669,15.014669 18.352,15.5653302 18.352,16.2 C18.352,16.8346698 18.118669,17.385331 17.652,17.852 C17.185331,18.318669 16.6346698,18.552 16,18.552 C15.3653302,18.552 14.814669,18.318669 14.348,17.852 C13.881331,17.385331 13.648,16.8346698 13.648,16.2 C13.648,15.5653302 13.881331,15.014669 14.348,14.548 C14.814669,14.081331 15.3653302,13.848 16,13.848 Z M16,11.552 C15.3653302,11.552 14.814669,11.318669 14.348,10.852 C13.881331,10.385331 13.648,9.83466984 13.648,9.2 C13.648,8.56533016 13.881331,8.014669 14.348,7.548 C14.814669,7.081331 15.3653302,6.848 16,6.848 C16.6346698,6.848 17.185331,7.081331 17.652,7.548 C18.118669,8.014669 18.352,8.56533016 18.352,9.2 C18.352,9.83466984 18.118669,10.385331 17.652,10.852 C17.185331,11.318669 16.6346698,11.552 16,11.552 Z" id="more_vert---material"></path>
        </g>
    </g>
</svg>

<svg width="32" height="32" xmlns="http://www.w3.org/2000/svg"><path d="M16 20.848c.635 0 1.185.233 1.652.7.467.467.7 1.017.7 1.652s-.233 1.185-.7 1.652c-.467.467-1.017.7-1.652.7s-1.185-.233-1.652-.7c-.467-.467-.7-1.017-.7-1.652s.233-1.185.7-1.652c.467-.467 1.017-.7 1.652-.7zm0-7c.635 0 1.185.233 1.652.7.467.467.7 1.017.7 1.652s-.233 1.185-.7 1.652c-.467.467-1.017.7-1.652.7s-1.185-.233-1.652-.7c-.467-.467-.7-1.017-.7-1.652s.233-1.185.7-1.652c.467-.467 1.017-.7 1.652-.7zm0-2.296c-.635 0-1.185-.233-1.652-.7-.467-.467-.7-1.017-.7-1.652s.233-1.185.7-1.652c.467-.467 1.017-.7 1.652-.7s1.185.233 1.652.7c.467.467.7 1.017.7 1.652s-.233 1.185-.7 1.652c-.467.467-1.017.7-1.652.7z" fill="#27322F" fill-rule="evenodd"/></svg>
